img/ico-gitter.svg

<?xml version="1.0" encoding="UTF-8" standalone="no"?>
<svg width="32px" height="32px" viewBox="0 0 32 32" version="1.1" xmlns="http://www.w3.org/2000/svg" xmlns:xlink="http://www.w3.org/1999/xlink" xmlns:sketch="http://www.bohemiancoding.com/sketch/ns">
    <!-- Generator: Sketch Beta 3.4.4 (17258) - http://www.bohemiancoding.com/sketch -->
    <title>Gitter logo</title>
    <desc>Created with Sketch Beta.</desc>
    <defs>
        <linearGradient x1="50%" y1="0%" x2="50%" y2="100%" id="linearGradient-1">
            <stop stop-color="#FB0766" offset="0%"></stop>
            <stop stop-color="#C50948" offset="100%"></stop>
        </linearGradient>
    </defs>
    <g id="Page-1" stroke="none" stroke-width="1" fill="none" fill-rule="evenodd" sketch:type="MSPage">
        <g id="About-Web" sketch:type="MSArtboardGroup" transform="translate(-587.000000, -1160.000000)">
            <g id="Contact" sketch:type="MSLayerGroup" transform="translate(241.000000, 952.000000)">
                <g id="Gitter" transform="translate(326.000000, 188.000000)" sketch:type="MSShapeGroup">
                    <g id="Gitter-logo" transform="translate(20.000000, 20.000000)">
                        <path d="M0,0 L32,0 L32,32 L0,32 L0,0 L0,0 Z" id="Shape" fill="url(#linearGradient-1)"></path>
                        <path d="M10.48925,7.859125 L12.054875,7.859125 L12.054875,18.19175 L10.48925,18.19175 L10.48925,7.859125 L10.48925,7.859125 Z M20.007875,10.364 L21.573375,10.364 L21.573375,18.19175 L20.007875,18.19175 L20.007875,10.364 L20.007875,10.364 Z M13.683,10.364 L15.2485,10.364 L15.2485,24.17225 L13.683,24.17225 L13.683,10.364 L13.683,10.364 Z M16.814125,10.364 L18.37975,10.364 L18.37975,24.17225 L16.814125,24.17225 L16.814125,10.364 L16.814125,10.364 Z" id="Shape" fill="#FFFFFF"></path>
                    </g>
                </g>
            </g>
        </g>
    </g>
</svg>

<svg width="32" height="32" viewBox="0 0 32 32" xmlns="http://www.w3.org/2000/svg" xmlns:sketch="http://www.bohemiancoding.com/sketch/ns"><title>Gitter logo</title><desc>Created with Sketch Beta.</desc><defs><linearGradient x1="50%" y1="0%" x2="50%" y2="100%" id="a"><stop stop-color="#FB0766" offset="0%"/><stop stop-color="#C50948" offset="100%"/></linearGradient></defs><g sketch:type="MSShapeGroup" fill="none"><path d="M0 0h32v32h-32v-32z" fill="url(#a)"/><path d="M10.489 7.859h1.566v10.333h-1.566v-10.333zm9.519 2.505h1.566v7.828h-1.566v-7.828zm-6.325 0h1.566v13.808h-1.566v-13.808zm3.131 0h1.566v13.808h-1.566v-13.808z" fill="#fff"/></g></svg>
